X:182 
T:Ryan's Flute* (reel)
F:file ID: cre.5/182ryans_f
B:CRE5.197 (gan ainm)
M:4/4
Q:180
R:reel
K:Am
B |A3B GABG|A3B e2dB|A4 GABd|egdg egdB|
A3B GABG|A3B e2dB|A4 GABd|egdg egdg||
ea~a2 gabg|ea~a2 g2Bd|ea~a2 gabg|egdg egd2|
ea~a2 gabg|ea~a2 g2Bd|ea~a2 gabg|egdg egdB||
"last time" A8||

%%%

